storage/app/icons/phosphoricons/thin/lock-laminated-open-thin.svg

<svg xmlns="http://www.w3.org/2000/svg" fill="currentColor" viewBox="0 0 256 256"><path d="M208 84H92V56a36 36 0 0 1 36-36c17.24 0 32.75 12.38 36.08 28.8a4 4 0 1 0 7.84-1.6C167.78 26.81 149.31 12 128 12a44.05 44.05 0 0 0-44 44v28H48a12 12 0 0 0-12 12v112a12 12 0 0 0 12 12h160a12 12 0 0 0 12-12V96a12 12 0 0 0-12-12M44 124h168v24H44Zm0 32h168v24H44Zm4-64h160a4 4 0 0 1 4 4v20H44V96a4 4 0 0 1 4-4m160 120H48a4 4 0 0 1-4-4v-20h168v20a4 4 0 0 1-4 4"/></svg>

<svg xmlns="http://www.w3.org/2000/svg" viewBox="0 0 256 256" fill="currentColor"><path d="M208,84H92V56a36,36,0,0,1,36-36c17.24,0,32.75,12.38,36.08,28.8a4,4,0,1,0,7.84-1.6C167.78,26.81,149.31,12,128,12A44.05,44.05,0,0,0,84,56V84H48A12,12,0,0,0,36,96V208a12,12,0,0,0,12,12H208a12,12,0,0,0,12-12V96A12,12,0,0,0,208,84ZM44,124H212v24H44Zm0,32H212v24H44Zm4-64H208a4,4,0,0,1,4,4v20H44V96A4,4,0,0,1,48,92ZM208,212H48a4,4,0,0,1-4-4V188H212v20A4,4,0,0,1,208,212Z"/></svg>
